outputs/icons/enterprise/issue_audit_round.svg

<svg width="1200" height="1200" viewBox="0 0 1200 1200" fill="none" xmlns="http://www.w3.org/2000/svg"><path d="M162.5 225L256.25 318.75L475 100L537.5 162.5L256.25 443.75L100 287.5L162.5 225Z" fill="black"/><path d="M600 200H1100V350H600V200Z" fill="black"/><path d="M256.25 646.875L162.5 553.125L100 615.625L256.25 771.875L537.5 490.625L475 428.125L256.25 646.875Z" fill="black"/><path d="M600 550H1100V700H600V550Z" fill="black"/><path d="M256.25 975L162.5 881.25L100 943.75L256.25 1100L537.5 818.75L475 756.25L256.25 975Z" fill="black"/><path d="M600 900H1100V1050H600V900Z" fill="black"/></svg>

<svg xmlns="http://www.w3.org/2000/svg" width="1200" height="1200" fill="none"><path fill="#000" d="m162.5 225 93.75 93.75L475 100l62.5 62.5-281.25 281.25L100 287.5zM600 200h500v150H600zM256.25 646.875l-93.75-93.75-62.5 62.5 156.25 156.25 281.25-281.25-62.5-62.5zM600 550h500v150H600zM256.25 975l-93.75-93.75-62.5 62.5L256.25 1100 537.5 818.75l-62.5-62.5zM600 900h500v150H600z"/></svg>
